X:1
T:Adullam, CM
T:Adullam, CM
T:Peter Henry Dayoff, 1882
T:Public Domain Courtesy of the Cyber Hymnal™
C:Peter Henry Dayoff, 1882
Z:Public Domain
Z:Courtesy of the Cyber Hymnal™
%%score ( 1 2 ) ( 3 4 )
L:1/8
Q:1/4=130
M:3/4
K:Ab
V:1 treble 
V:2 treble 
V:3 bass 
V:4 bass 
V:1
 [CE]2 | [CA]4 [CA]2 | [Ec]4 [EA]2 | [DF]4 [DF]2 | [FA]4 [DF]2 | [CE]4 (EA) | [B,G]2 [CA]2 [DB]2 | %7
 [CA]4 [Ec]2 | [Ec]4 [DB]2 | [CA]4 E2 | [DF]2 [FA]2 [DF]2 | [CE]4 [CE]2 | [DF]2 [FA]2 (AB) | %13
 [Ec]4 [DB]2 | [CA]8 |] %15
V:2
 x2 | x6 | x6 | x6 | x6 | x4 C2 | x6 | x6 | x6 | x4 E2 | x6 | x6 | x4 F2 | x6 | x8 |] %15
V:3
 [A,,E,]2 | [A,,E,]4 [A,,E,]2 | [A,,A,]4 [C,A,]2 | [D,A,]4 [D,A,]2 | [D,A,]4 [D,A,]2 | %5
 [E,A,]4 E,2 | E,4 E,2 | [A,,E,]4 A,2 | A,4 [E,G,]2 | [F,A,]4 [C,A,]2 | [D,A,]4 [D,A,]2 | %11
 [A,,A,]4 [A,,A,]2 | [D,A,]4 [D,A,]2 | [E,A,]4 [E,G,]2 | [A,,A,]8 |] %15
V:4
 x2 | x6 | x6 | x6 | x6 | x4 E,2 | E,4 E,2 | x4 A,2 | A,4 x2 | x6 | x6 | x6 | x6 | x6 | x8 |] %15

